icons/tokens/0xEeeeeEeeeEeEeeEeEeEeeEEEeeeeEeeeeeeeEEeE/logo-alt.svg

<svg xmlns="http://www.w3.org/2000/svg" width="32" height="32" viewBox="0 0 32 32">
  <g fill="none" fill-rule="evenodd">
    <path fill="#FFF" d="M32,16 C32,13.90592 31.58336,11.81184 30.78208,9.87712 C29.9808,7.9424 28.79456,6.16704 27.3136,4.6864 C25.83296,3.20544 24.0576,2.0192 22.12288,1.21792 C20.18816,0.41664 18.09408,0 16,0 C13.90592,0 11.81184,0.41664 9.87712,1.21792 C7.9424,2.0192 6.16704,3.20544 4.6864,4.6864 C3.20544,6.16704 2.0192,7.9424 1.21792,9.87712 C0.41664,11.81184 0,13.90592 0,16 C0,18.09408 0.41664,20.18816 1.21792,22.12288 C2.0192,24.0576 3.20544,25.83296 4.6864,27.3136 C6.16704,28.79456 7.9424,29.9808 9.87712,30.78208 C11.81184,31.58336 13.90592,32 16,32 C18.09408,32 20.18816,31.58336 22.12288,30.78208 C24.0576,29.9808 25.83296,28.79456 27.3136,27.3136 C28.79456,25.83296 29.9808,24.0576 30.78208,22.12288 C31.58336,20.18816 32,18.09408 32,16 Z"/>
    <polygon fill="#8A92B2" points="8.49 17.651 15.997 28.231 15.997 22.087"/>
    <polygon fill="#62688F" points="15.997 22.087 15.997 28.231 23.51 17.651"/>
    <polygon fill="#62688F" points="16 12 8.49 16.227 15.997 20.665"/>
    <polygon fill="#454A75" points="15.997 20.665 23.506 16.227 16 12"/>
    <polygon fill="#8A92B2" points="15.997 3.769 8.49 16.227 15.997 12.815"/>
    <polygon fill="#62688F" points="23.506 16.227 15.997 3.769 15.997 12.815"/>
  </g>
</svg>

<svg viewBox="0 0 32 32"><g fill="none" fill-rule="evenodd"><path fill="#FFF" d="M32 16c0-2.094-.417-4.188-1.218-6.123a16.047 16.047 0 00-3.468-5.19 16.047 16.047 0 00-5.191-3.47A16.055 16.055 0 0016 0c-2.094 0-4.188.417-6.123 1.218a16.047 16.047 0 00-5.19 3.468 16.047 16.047 0 00-3.47 5.191A16.055 16.055 0 000 16c0 2.094.417 4.188 1.218 6.123a16.047 16.047 0 003.468 5.19 16.047 16.047 0 005.191 3.47A16.055 16.055 0 0016 32c2.094 0 4.188-.417 6.123-1.218a16.047 16.047 0 005.19-3.468 16.047 16.047 0 003.47-5.191A16.055 16.055 0 0032 16z"/><path fill="#8A92B2" d="M8.49 17.651l7.507 10.58v-6.144z"/><path fill="#62688F" d="M15.997 22.087v6.144l7.513-10.58zM16 12l-7.51 4.227 7.507 4.438z"/><path fill="#454A75" d="M15.997 20.665l7.509-4.438L16 12z"/><path fill="#8A92B2" d="M15.997 3.769L8.49 16.227l7.507-3.412z"/><path fill="#62688F" d="M23.506 16.227L15.997 3.769v9.046z"/></g></svg>
